X: 10602
T: PARASOT HORNPIPE
C:
%R: hornpipe, reel
B: Elias Howe "The Musician's Companion" Part 1 1842 p.60 #2
S: http://imslp.org/wiki/The_Musician's_Companion_(Howe,_Elias)
Z: 2015 John Chambers <jc:trillian.mit.edu>
M: 2/4
L: 1/16
K: D
% - - - - - - - - - - - - - - - - - - - - - - - - -
A2 |\
dcde fefd | gagf e2fe | dcde fadf | edcB a3A |\
dcde fefd | gagf e2ag | fadf egce | d2d2d2 :|
|: ed |\
cdBc A2fe | decd B2ba | geba geba | gfgf gedc |\
dcde fefd | gagf e2ag | fadf egce | d2d2d2 :|
% - - - - - - - - - - - - - - - - - - - - - - - - -
